X:1
T:Come, Shout and Sing
T:Come, Shout and Sing
T:Henry Maxwell Wright
T:James Bateman or Henry Wright, 1881
T:Public Domain Courtesy of the Cyber Hymnal™
T:Public Domain Courtesy of the Cyber Hymnal™
C:Henry Maxwell Wright
Z:Public Domain
Z:Courtesy of the Cyber Hymnal™
%%score ( 1 2 ) ( 3 4 )
L:1/8
Q:1/4=100
M:4/4
K:Eb
V:1 treble 
V:2 treble 
V:3 bass 
V:4 bass 
V:1
 [DB]2 | BB=AB cB[EG][B,E] | ED D>^C [A,D]3 [EA] | AAGA [Fd][Ac][GB][FA] | AG G>^F [EG]3 [EG] | %5
w: 1.~Come,|shout and sing, make Heav- en ring With|prais- es to our king, Who|bled and died, was cru- ci- fied, That|He might par- don bring. His|
w: 2.~Come,|join our band, and make a stand To|drive sin from our land; To|do or die, our bat- tle cry, We|fight at God’s com- mand, With|
w: 3.~The|Lord is near when foes ap- pear, With|Him we shall not fear, But|fight the fight for God and right, Nor|count the cost too dear. Then|
 GG^FG c3 z B | BAAC [B,F]3 [B,E] | [B,D][DF][DB][E=A] cB_AF | E6 ||"^Refrain" B>B | %10
w: blood doth save the soul, Doth|* cleanse and make it whole,|The blood of Je- sus cleans- es white|as|snow. *|
w: ban- ner wide un- furled; We|* tell to all the world:|The blood of Je- sus cleans- es white|as|snow. O|
w: when we come to die, We’ll|* shout our bat- tle cry:|The blood of Je- sus cleans- es white|as|snow. *|
 BB=AB cB[EG][B,E] | [B,D]2 [DA]>[EA] A3 z A | AAGA [Fd][Ac][GB][FA] | [EG]2 B>B B3 z B | %14
w: ||||
w: the blood of Je- sus cleans- es white|as snow, yes, I know!|* The blood of Je- sus cleans- es|white as snow, yes, I|
w: ||||
 B>B =AB e3 z G/G/ | GF=EF c3 z c | cB[Fd][Ec] B=A_AF | E6 |] %18
w: ||||
w: * know! I bless the hap- py|* day, when He washed my|* sins a- way, The blood of Je-|sus|
w: ||||
V:2
 x2 | E2 E2 E2 x2 | A,2 A,2 x4 | D2 D2 x4 | E2 E2 x4 | E2 E2 =E2 G2 x | F2 C2 x4 | x4 D2 D2 | %8
 (EB,DC B,2) || D2 | D2 E2 E2 x2 | x4 F2 D2 x | D2 D2 x4 | x2 E2 D2 D2 x | E2 E2 G2 C2 x | %15
 C2 C2 F2 _E2 x | D2 x D2 D2 x | E6 |] %18
V:3
 [B,,A,]2 | G,G,^F,G, A,G, [E,G,]2 | [B,,F,]2 F,>=E, F,3 [C,F,] | F,F,=E,F, [B,,B,]2 B,2 | %4
 CB, B,>=A, [E,B,]3 [E,B,] | [E,B,]2 [E,=A,][_D,B,] C3 z C | [F,C]2 A,2 [D,A,]3 [E,G,] | %7
 [B,,F,]2 [B,,F,]2 F,F,B,A, | (G,G,B,A, G,2) || [B,,A,]2 | G,G,^F,G, A,G,B,G, | %11
 [F,A,]2 F,2 F,3 z x | F,F,=E,F, [B,,B,]2 B,2 | [E,B,]2 [G,B,]2 A,3 z x | %14
 [E,G,]2 ^F,G, C3 z B,/B,/ | B,A,G,A, F,3 z F, | [B,,F,]2 [B,,F,]2 F,F,B,A, | G,6 |] %18
V:4
 x2 | E,2 E,2 E,2 x2 | x2 B,,2 (B,,2 D,) x | B,,2 B,,2 x C,D, x | E,2 E,2 x4 | x4 C,2 =E,2 x | %6
 x2 F,E, x4 | x4 B,,2 B,,2 | E,4 x2 || x2 | E,2 E,2 E,2 E,2 | x2 B,,>C, (D,2 B,,2 F,) | %12
 B,,2 B,,2 x C,D, x | x4 (F,2 D,2 A,) | x2 E,2 C,2 E,2 x | F,2 F,2 A,,2 =A,,2 x | x4 B,,2 B,,2 | %17
 (E,2 B,,2 E,,2) |] %18

